icons/solid/wifi.svg

<svg width="24" height="24" viewBox="0 0 24 24" fill="none" xmlns="http://www.w3.org/2000/svg">
<path fill-rule="evenodd" clip-rule="evenodd" d="M5 1C2.79086 1 1 2.79086 1 5V19C1 21.2091 2.79086 23 5 23H19C21.2091 23 23 21.2091 23 19V5C23 2.79086 21.2091 1 19 1H5ZM11.9941 6C8.79214 6 5.8724 7.34818 3.70368 9.56897C3.31782 9.9641 2.6847 9.97161 2.28957 9.58574C1.89444 9.19988 1.88693 8.56676 2.27279 8.17163C4.78739 5.59666 8.21138 4 11.9941 4C15.7769 4 19.2008 5.59666 21.7154 8.17163C22.1013 8.56676 22.0938 9.19988 21.6987 9.58574C21.3035 9.97161 20.6704 9.9641 20.2846 9.56897C18.1158 7.34818 15.1961 6 11.9941 6ZM11.9941 11C9.97133 11 8.11081 11.7807 6.65937 13.0947C6.24995 13.4654 5.61756 13.434 5.2469 13.0245C4.87624 12.6151 4.90767 11.9827 5.3171 11.6121C7.10962 9.98925 9.44037 9 11.9941 9C14.5479 9 16.8786 9.98925 18.6711 11.6121C19.0806 11.9827 19.112 12.6151 18.7413 13.0245C18.3707 13.434 17.7383 13.4654 17.3289 13.0947C15.8774 11.7807 14.0169 11 11.9941 11ZM11.9941 16C11.0705 16 10.2086 16.2964 9.48301 16.814C9.03342 17.1348 8.40893 17.0304 8.08816 16.5808C7.7674 16.1312 7.87183 15.5067 8.32142 15.186C9.36702 14.4399 10.6313 14 11.9941 14C13.357 14 14.6212 14.4399 15.6668 15.186C16.1164 15.5067 16.2208 16.1312 15.9001 16.5808C15.5793 17.0304 14.9548 17.1348 14.5052 16.814C13.7796 16.2964 12.9177 16 11.9941 16ZM10.9941 19C10.9941 18.4477 11.4418 18 11.9941 18H12.0041C12.5564 18 13.0041 18.4477 13.0041 19C13.0041 19.5523 12.5564 20 12.0041 20H11.9941C11.4418 20 10.9941 19.5523 10.9941 19Z" fill="currentColor"/>
</svg>

<svg width="24" height="24" fill="none" xmlns="http://www.w3.org/2000/svg"><path fill-rule="evenodd" clip-rule="evenodd" d="M5 1a4 4 0 00-4 4v14a4 4 0 004 4h14a4 4 0 004-4V5a4 4 0 00-4-4H5zm6.994 5c-3.202 0-6.122 1.348-8.29 3.569a1 1 0 11-1.431-1.397C4.787 5.597 8.21 4 11.994 4c3.783 0 7.207 1.597 9.721 4.172a1 1 0 11-1.43 1.397C18.115 7.349 15.196 6 11.995 6zm0 5c-2.023 0-3.883.78-5.335 2.095a1 1 0 11-1.342-1.483C7.11 9.99 9.44 9 11.994 9c2.554 0 4.885.99 6.677 2.612a1 1 0 11-1.342 1.483C15.877 11.78 14.017 11 11.994 11zm0 5a4.3 4.3 0 00-2.511.814 1 1 0 11-1.162-1.628A6.3 6.3 0 0111.994 14c1.363 0 2.627.44 3.673 1.186a1 1 0 11-1.162 1.628 4.3 4.3 0 00-2.51-.814zm-1 3a1 1 0 011-1h.01a1 1 0 110 2h-.01a1 1 0 01-1-1z" fill="currentColor"/></svg>
